flaticon/files-and-folders/clipboard-35.svg

<svg xmlns="http://www.w3.org/2000/svg" width="32" height="32" viewBox="0 0 24 24">
    <path d="M 16.800781 19.601562 C 17.921875 19.601562 18.800781 18.71875 18.800781 17.601562 L 18.800781 4.800781 C 18.800781 3.679688 17.921875 2.800781 16.800781 2.800781 L 16 2.800781 L 16 2.398438 C 16 1.960938 15.640625 1.601562 15.199219 1.601562 L 14.398438 1.601562 L 14.398438 1.199219 C 14.398438 0.878906 14.28125 0.601562 14.039062 0.359375 C 13.839844 0.121094 13.519531 0 13.199219 0 L 10.800781 0 C 10.121094 0 9.601562 0.519531 9.601562 1.199219 L 9.601562 1.601562 L 8.800781 1.601562 C 8.359375 1.601562 8 1.960938 8 2.398438 L 8 2.800781 L 7.199219 2.800781 C 6.078125 2.800781 5.199219 3.679688 5.199219 4.800781 L 5.199219 17.601562 C 5.199219 18.71875 6.078125 19.601562 7.199219 19.601562 L 11.601562 19.601562 L 11.601562 20.800781 L 10 20.800781 C 9.320312 20.800781 8.800781 21.320312 8.800781 22 L 5.601562 22 C 5.359375 22 5.199219 22.160156 5.199219 22.398438 C 5.199219 22.640625 5.359375 22.800781 5.601562 22.800781 L 8.800781 22.800781 C 8.800781 23.480469 9.320312 24 10 24 L 14 24 C 14.679688 24 15.199219 23.480469 15.199219 22.800781 L 18.398438 22.800781 C 18.640625 22.800781 18.800781 22.640625 18.800781 22.398438 C 18.800781 22.160156 18.640625 22 18.398438 22 L 15.199219 22 C 15.199219 21.320312 14.679688 20.800781 14 20.800781 L 12.398438 20.800781 L 12.398438 19.601562 Z M 14.398438 22 L 14.398438 22.800781 C 14.398438 23.039062 14.238281 23.199219 14 23.199219 L 10 23.199219 C 9.761719 23.199219 9.601562 23.039062 9.601562 22.800781 L 9.601562 22 C 9.601562 21.761719 9.761719 21.601562 10 21.601562 L 14 21.601562 C 14.238281 21.601562 14.398438 21.761719 14.398438 22 Z M 8.800781 2.398438 L 10 2.398438 C 10.238281 2.398438 10.398438 2.238281 10.398438 2 L 10.398438 1.199219 C 10.398438 0.960938 10.558594 0.800781 10.800781 0.800781 L 13.199219 0.800781 C 13.320312 0.800781 13.441406 0.839844 13.480469 0.921875 C 13.558594 1 13.601562 1.078125 13.601562 1.199219 L 13.601562 2 C 13.601562 2.238281 13.761719 2.398438 14 2.398438 L 15.199219 2.398438 L 15.199219 4 L 8.800781 4 Z M 6 17.601562 L 6 4.800781 C 6 4.121094 6.519531 3.601562 7.199219 3.601562 L 8 3.601562 L 8 4 C 8 4.214844 8.066406 4.398438 8.195312 4.519531 C 8.328125 4.671875 8.515625 4.777344 8.722656 4.796875 C 8.75 4.796875 8.773438 4.800781 8.800781 4.800781 L 15.199219 4.800781 C 15.640625 4.800781 16 4.441406 16 4 L 16 3.601562 L 16.800781 3.601562 C 17.480469 3.601562 18 4.121094 18 4.800781 L 18 17.601562 C 18 18.28125 17.480469 18.800781 16.800781 18.800781 L 7.199219 18.800781 C 6.519531 18.800781 6 18.28125 6 17.601562 Z M 6 17.601562"/>
    <path d="M8 8.398438L16 8.398438C16.238281 8.398438 16.398438 8.238281 16.398438 8 16.398438 7.761719 16.238281 7.601562 16 7.601562L8 7.601562C7.761719 7.601562 7.601562 7.761719 7.601562 8 7.601562 8.238281 7.761719 8.398438 8 8.398438zM8 10.800781L16 10.800781C16.238281 10.800781 16.398438 10.640625 16.398438 10.398438 16.398438 10.160156 16.238281 10 16 10L8 10C7.761719 10 7.601562 10.160156 7.601562 10.398438 7.601562 10.640625 7.761719 10.800781 8 10.800781zM8 13.199219L16 13.199219C16.238281 13.199219 16.398438 13.039062 16.398438 12.800781 16.398438 12.558594 16.238281 12.398438 16 12.398438L8 12.398438C7.761719 12.398438 7.601562 12.558594 7.601562 12.800781 7.601562 13.039062 7.761719 13.199219 8 13.199219zM16.398438 15.199219C16.398438 14.960938 16.238281 14.800781 16 14.800781L8 14.800781C7.761719 14.800781 7.601562 14.960938 7.601562 15.199219 7.601562 15.441406 7.761719 15.601562 8 15.601562L16 15.601562C16.238281 15.601562 16.398438 15.441406 16.398438 15.199219zM16.398438 15.199219"/>
</svg>

<svg xmlns="http://www.w3.org/2000/svg" width="32" height="32" viewBox="0 0 24 24">
    <path d="M16.8 19.602c1.122 0 2-.883 2-2V4.8c0-1.121-.878-2-2-2H16v-.403a.801.801 0 0 0-.8-.796h-.802v-.403c0-.32-.117-.597-.359-.84C13.84.121 13.52 0 13.2 0h-2.398c-.68 0-1.2.52-1.2 1.2v.402h-.8c-.442 0-.801.359-.801.796v.403h-.8c-1.122 0-2 .879-2 2v12.8c0 1.118.878 2 2 2h4.402v1.2H10c-.68 0-1.2.52-1.2 1.199H5.603c-.243 0-.403.16-.403.398 0 .243.16.403.403.403H8.8C8.8 23.48 9.32 24 10 24h4c.68 0 1.2-.52 1.2-1.2h3.198c.243 0 .403-.16.403-.402 0-.238-.16-.398-.403-.398H15.2c0-.68-.52-1.2-1.199-1.2h-1.602v-1.198zM14.399 22v.8c0 .24-.16.4-.398.4h-4c-.238 0-.398-.16-.398-.4V22c0-.238.16-.398.398-.398h4c.238 0 .398.16.398.398zM8.801 2.398H10c.238 0 .398-.16.398-.398v-.8c0-.24.16-.4.403-.4h2.398c.121 0 .242.04.281.122a.36.36 0 0 1 .122.277V2c0 .238.16.398.398.398h1.2V4H8.8zM6 17.602V4.8c0-.68.52-1.2 1.2-1.2H8V4c0 .215.066.398.195.52.133.152.32.257.528.277.027 0 .05.004.078.004h6.398C15.641 4.8 16 4.44 16 4v-.398h.8c.68 0 1.2.52 1.2 1.199v12.8c0 .68-.52 1.2-1.2 1.2H7.2c-.68 0-1.2-.52-1.2-1.2zm0 0"/>
    <path d="M8 8.398h8c.238 0 .398-.16.398-.398 0-.238-.16-.398-.398-.398H8c-.238 0-.398.16-.398.398 0 .238.16.398.398.398zm0 0M8 10.8h8c.238 0 .398-.16.398-.402 0-.238-.16-.398-.398-.398H8c-.238 0-.398.16-.398.398 0 .243.16.403.398.403zm0 0M8 13.2h8c.238 0 .398-.16.398-.4 0-.241-.16-.402-.398-.402H8c-.238 0-.398.16-.398.403 0 .238.16.398.398.398zm0 0M16.398 15.2c0-.24-.16-.4-.398-.4H8c-.238 0-.398.16-.398.4 0 .241.16.402.398.402h8c.238 0 .398-.16.398-.403zm0 0"/>
</svg>
